X:1
T:Title
L:1/8
M:3/8
K:F
V:1 treble nm="Grand Piano"
V:1
 z z[Q:1/4=100] C | G2 F | E2 C | _A2 G | F2 C | _A2 G | F2 _E | _E^C=C | ^C2 C | D2 D | F2 F | %11
 G2 F | E2 _A/G/ | F2 c | =B2 _A | G/_A/G/F/E/F/ | G3- | G2 B | B2 A | B2 B/c/ | _A2 G | F2 G | %22
 G2 F | E2 F | E^CE | F3- | F2 z |] %27

